public/avatar/body/69.svg

<svg xmlns:xlink="http://www.w3.org/1999/xlink" height="82" width="84.85" xmlns="http://www.w3.org/2000/svg"><g transform="translate(37.4 42.25)"><use height="38.55" transform="translate(3.8 -17.15)" width="19.35" xlink:href="#a"/><use height="38.55" transform="matrix(-1 0 0 1 4.95 -17.15)" width="19.35" xlink:href="#a"/><use height="42.05" transform="translate(-10.75 -21.65)" width="31.25" xlink:href="#b"/></g><defs><g id="c"><path d="M4.05.3Q6.9.95 8.7 3.25l.65 1Q7 1.35 4.05.3 7 1.35 9.35 4.25l2.3 4.2 2.75 7 .25.3.3.35.2.3.15.2q2.8 2.75 3.15 11l-.15 1.65q-.45 1.7-2 3.45-1.25 1.45-3.05 2.45-3.15 1.8-7.95 2.35l-1.3.15-3.7.15H0V.45L.4.6.95.55 3.15.1l.9.2M0 .85h.45l.5-.3-.5.3H0M5.3 37.5l4-.85q2.25-.6 3.95-1.5-1.7.9-3.95 1.5l-4 .85" fill="#f80" fill-rule="evenodd" transform="translate(.45 .3)"/><path d="M9.8 4.55q1.6 1.95 2.95 4.8 1.65 3.5 2.35 6.7m.3.35.2.3q3.45 2.15 3.3 11.2l-.15 1.65q-.8 3.75-5.05 5.9-1.7.9-3.95 1.5l-4 .85-1.3.15-3.7.15h-.3M1.4.85 1.8.6 4.15.45 4.5.6q2.95 1.05 5.3 3.95M1.4.85l-.5.3H.45" fill="none" stroke="#333" stroke-linecap="round" stroke-linejoin="round" stroke-width=".95"/></g><g id="b"><path d="M4-13.75q.55-.45.4-1.05h.25q.35-.45.6-.4.1 1.9.65 5-.1 2.1.1 6.25l-.5 3 .4 3.15-.7 1.5q-.45.8-.3 1.6l.5 1.45q.35.85.2 1.55l-.95 3.25q.05 1.1.85 2.85.25 1.15-.35 3.15-.05 1 .45 2.75l-2.95.1q.5-3.45.25-5.1-.35-2-.25-2.6l.75-2.5-.25-6.75.5-3-.25-3.5.1-3.4q-.4-1.95-.25-3l.4-2.75q0-.5.35-1.55m3.6-2.65q3.5.5 6.4 9.7.5 1.55 2.5 4.75L17.15.7l1.2 1.25q.7.7.8 1.6l-.15 2 .75 2.05q.55 1.4.05 3.95l.7 3.5q-.15 1.55-1.75 2.2.2-4 0-5.95l-.35-3.15q-.4-1.3-.55-2.85-.1-1.15-1.4-2.7Q15.05 1 14.9-.05L13.6-2.8q-.3-.7-1.05-3.15l-2.5-4.6L7.6-16.4" fill="#c76a00" fill-rule="evenodd" transform="translate(10.75 21.65)"/><path d="m7.3-18.65 1.85.9.5 1.7-2.45.15-.75 1.4-1.3-.9-2.7.85.1-1.7-1-.8 1.15-1.2.85-.25.7-.7.75-2 1.65.05.15 1.35q0 .4.5 1.15" fill="#168700" fill-rule="evenodd" transform="translate(10.75 21.65)"/><path d="m18.05 3 1.85.9.5 1.7-2.45.15-.75 1.4-1.3-.9-2.7.85.1-1.7-1-.8 1.15-1.2.85-.25.7-.7.75-2L17.4.5l.15 1.35q0 .4.5 1.15Z" fill="none" stroke="#284024" stroke-linecap="round" stroke-linejoin="round" stroke-width=".95"/><path d="m.1-14 1-1.25q.6-.85 1.1-.95.25 1.3-2.1 4.25-1.45 1.85-1.95 4.25-.25 1.2-1.65 3.2Q-5.15.15-5.9 1q-1.5 1.85-1.6 2.55-.25 1.7-.75 2.9L-8.7 9.2l-.9 3.1q-.15 1.15.7 3.1.8 2 .75 2.9l-1.55-.5-.4-1.8q-.75-2.65-.65-3.55l.5-4q1.1-3.25 1.4-4.9.75-3.7 1.25-4.65l.1-.2q.95-2.05 1.45-4.35.8-3.8 6.15-8.35M9.4-2.85l2.4 3.4q.35.8.7 2.65l1.15 2.1q.45 1.8-.75 6 0 1.2.5 3.4.15 2.45-.7 4.1-1.15 2.05-3.35 1.3l-.2.1.1-.15.1.05q.65-.5 1.15-2.4 0-1.1.25-1.55l.75-.95q.2-.45-.1-3.15v-3q.1-2.6-.75-6.25L9.6-.15q-.7-2.2-.2-2.7" fill="#c76a00" fill-rule="evenodd" transform="translate(10.75 21.65)"/><path d="m-1.85-2.05.75.6q.6.4-.9 3.4-.55 1.1-.45 2.55l.2 2.55q0 1.65-.6 4.65v4.5q0 1.35.7 3.7l-1.95-.5-.6-2.4-.05-2.7q0-3.6.75-7.35-.15-2.9.15-4.3.9-4.7 1.25-4.8l.75.1" fill="#c76a00" fill-rule="evenodd" transform="translate(10.75 21.65)"/></g><use height="38.55" width="19.35" xlink:href="#c" id="a"/></defs></svg>

<?xml version="1.0" encoding="UTF-8" standalone="no"?>
<svg xmlns:xlink="http://www.w3.org/1999/xlink" height="82.0px" width="84.85px" xmlns="http://www.w3.org/2000/svg">
  <g transform="matrix(1.0, 0.0, 0.0, 1.0, 37.4, 42.25)">
    <use height="38.55" transform="matrix(1.0, 0.0, 0.0, 1.0, 3.8, -17.15)" width="19.35" xlink:href="#sprite0"/>
    <use height="38.55" transform="matrix(-1.0, 0.0, 0.0, 1.0, 4.95, -17.15)" width="19.35" xlink:href="#sprite0"/>
    <use height="42.05" transform="matrix(1.0, 0.0, 0.0, 1.0, -10.75, -21.65)" width="31.25" xlink:href="#shape1"/>
  </g>
  <defs>
    <g id="sprite0" transform="matrix(1.0, 0.0, 0.0, 1.0, 0.45, 0.3)">
      <use height="38.55" transform="matrix(1.0, 0.0, 0.0, 1.0, -0.45, -0.3)" width="19.35" xlink:href="#shape0"/>
    </g>
    <g id="shape0" transform="matrix(1.0, 0.0, 0.0, 1.0, 0.45, 0.3)">
      <path d="M4.05 0.3 Q6.9 0.95 8.7 3.25 L9.35 4.25 Q7.0 1.35 4.05 0.3 7.0 1.35 9.35 4.25 L11.65 8.45 14.4 15.45 14.65 15.75 14.95 16.1 15.15 16.4 15.3 16.6 Q18.1 19.35 18.45 27.6 L18.3 29.25 Q17.85 30.95 16.3 32.7 15.05 34.15 13.25 35.15 10.1 36.95 5.3 37.5 L4.0 37.65 0.3 37.8 0.0 37.8 0.0 0.85 0.0 0.45 0.4 0.6 0.95 0.55 3.15 0.1 4.05 0.3 M0.0 0.85 L0.45 0.85 0.95 0.55 0.45 0.85 0.0 0.85 M5.3 37.5 L9.3 36.65 Q11.55 36.05 13.25 35.15 11.55 36.05 9.3 36.65 L5.3 37.5" fill="#ff8800" fill-rule="evenodd" stroke="none"/>
      <path d="M9.35 4.25 Q10.95 6.2 12.3 9.05 13.95 12.55 14.65 15.75 M14.95 16.1 L15.15 16.4 Q18.6 18.55 18.45 27.6 L18.3 29.25 Q17.5 33.0 13.25 35.15 11.55 36.05 9.3 36.65 L5.3 37.5 4.0 37.65 0.3 37.8 0.0 37.8 M0.95 0.55 L1.35 0.3 3.7 0.15 4.05 0.3 Q7.0 1.35 9.35 4.25 M0.95 0.55 L0.45 0.85 0.0 0.85" fill="none" stroke="#333333" stroke-linecap="round" stroke-linejoin="round" stroke-width="0.9500000000000001"/>
    </g>
    <g id="shape1" transform="matrix(1.0, 0.0, 0.0, 1.0, 10.75, 21.65)">
      <path d="M4.0 -13.75 Q4.55 -14.2 4.4 -14.8 L4.65 -14.8 Q5.0 -15.25 5.25 -15.2 5.35 -13.3 5.9 -10.2 5.8 -8.1 6.0 -3.95 L5.5 -0.95 5.9 2.2 5.2 3.7 Q4.75 4.5 4.9 5.3 L5.4 6.75 Q5.75 7.6 5.6 8.3 L4.65 11.55 Q4.7 12.65 5.5 14.4 5.75 15.55 5.15 17.55 5.1 18.55 5.6 20.3 L2.65 20.4 Q3.15 16.95 2.9 15.3 2.55 13.3 2.65 12.7 L3.4 10.2 3.15 3.45 3.65 0.45 3.4 -3.05 3.5 -6.45 Q3.1 -8.4 3.25 -9.45 L3.65 -12.2 Q3.65 -12.7 4.0 -13.75" fill="#c76a00" fill-rule="evenodd" stroke="none"/>
      <path d="M7.6 -16.4 Q11.1 -15.9 14.0 -6.7 14.5 -5.15 16.5 -1.95 L17.15 0.7 18.35 1.95 Q19.05 2.65 19.15 3.55 L19.0 5.55 19.75 7.6 Q20.3 9.0 19.8 11.55 L20.5 15.05 Q20.35 16.6 18.75 17.25 18.95 13.25 18.75 11.3 L18.4 8.15 Q18.0 6.85 17.85 5.3 17.75 4.15 16.45 2.6 15.05 1.0 14.9 -0.05 L13.6 -2.8 Q13.3 -3.5 12.55 -5.95 L10.05 -10.55 7.6 -16.4" fill="#c76a00" fill-rule="evenodd" stroke="none"/>
      <path d="M7.3 -18.65 L9.15 -17.75 9.65 -16.05 7.2 -15.9 6.45 -14.5 5.15 -15.4 2.45 -14.55 2.55 -16.25 1.55 -17.05 2.7 -18.25 3.55 -18.5 4.25 -19.2 5.0 -21.2 6.65 -21.15 6.8 -19.8 Q6.8 -19.4 7.3 -18.65" fill="#168700" fill-rule="evenodd" stroke="none"/>
      <path d="M7.3 -18.65 L9.15 -17.75 9.65 -16.05 7.2 -15.9 6.45 -14.5 5.15 -15.4 2.45 -14.55 2.55 -16.25 1.55 -17.05 2.7 -18.25 3.55 -18.5 4.25 -19.2 5.0 -21.2 6.65 -21.15 6.8 -19.8 Q6.8 -19.4 7.3 -18.65 Z" fill="none" stroke="#284024" stroke-linecap="round" stroke-linejoin="round" stroke-width="0.9500000000000001"/>
      <path d="M0.1 -14.0 L1.1 -15.25 Q1.7 -16.1 2.2 -16.2 2.45 -14.9 0.1 -11.95 -1.35 -10.1 -1.85 -7.7 -2.1 -6.5 -3.5 -4.5 -5.15 0.15 -5.9 1.0 -7.4 2.85 -7.5 3.55 -7.75 5.25 -8.25 6.45 L-8.7 9.2 -9.6 12.3 Q-9.75 13.45 -8.9 15.4 -8.1 17.4 -8.15 18.3 L-9.7 17.8 -10.1 16.0 Q-10.85 13.35 -10.75 12.45 L-10.25 8.45 Q-9.15 5.2 -8.85 3.55 -8.1 -0.15 -7.6 -1.1 L-7.5 -1.3 Q-6.55 -3.35 -6.05 -5.65 -5.25 -9.45 0.1 -14.0" fill="#c76a00" fill-rule="evenodd" stroke="none"/>
      <path d="M9.4 -2.85 L11.8 0.55 Q12.15 1.35 12.5 3.2 L13.65 5.3 Q14.1 7.1 12.9 11.3 12.9 12.5 13.4 14.7 13.55 17.15 12.7 18.8 11.55 20.85 9.35 20.1 L9.15 20.2 9.25 20.05 9.35 20.1 Q10.0 19.6 10.5 17.7 10.5 16.6 10.75 16.15 L11.5 15.2 Q11.7 14.75 11.4 12.05 L11.4 9.05 Q11.5 6.45 10.65 2.8 L9.6 -0.15 Q8.9 -2.35 9.4 -2.85" fill="#c76a00" fill-rule="evenodd" stroke="none"/>
      <path d="M-1.85 -2.05 L-1.1 -1.45 Q-0.5 -1.05 -2.0 1.95 -2.55 3.05 -2.45 4.5 L-2.25 7.05 Q-2.25 8.7 -2.85 11.7 L-2.85 16.2 Q-2.85 17.55 -2.15 19.9 L-4.1 19.4 -4.7 17.0 -4.75 14.3 Q-4.75 10.7 -4.0 6.95 -4.15 4.05 -3.85 2.65 -2.95 -2.05 -2.6 -2.15 L-1.85 -2.05" fill="#c76a00" fill-rule="evenodd" stroke="none"/>
    </g>
  </defs>
</svg>
